X: 1
T: Rhenl\"andere efter Munkberg
T: (FvL Sk\aane nr.758)
C: Barse\"ack, Sk\aane
R: shottish
S: Fiddle Hell Online 2020-11-06
Z: 2020 John Chambers <jc:trillian.mit.edu>
M: 2/4
L: 1/16
K: D
AG |\
F2AG E2GF | D2FA d4 | (ce)ge (cd)ec | (df)dB A2AG |
F2AG E2GF | D2FA d4 | (ce)ge (cd)ec | d2d2 d2 :|
|: A2 |\
(Af)fd A2A2 | (Af)fd B2B2 | (eg)ge (ec)cA | (Aa)af (fd)d2 |
(Af)fd A2A2 | (df)fd B2B2 | (eg)ge (cd)ec | d2d2 d2 :|
